svg/monochrome/vector-square-alt.svg

<svg xmlns="http://www.w3.org/2000/svg" viewBox="0 0 24 24"><path class="uim-primary" d="M4 22a2 2 0 1 1 2-2A2.0026 2.0026 0 0 1 4 22zm0-2.002v0zM4 6A2 2 0 1 1 6 4 2.0026 2.0026 0 0 1 4 6zM4 3.99805v0zM20 6a2 2 0 1 1 2-2A2.0026 2.0026 0 0 1 20 6zm0-2.00195v0zM20 22a2 2 0 1 1 2-2A2.0026 2.0026 0 0 1 20 22zm0-2.002v0z"/><rect width="10" height="10" x="7" y="7" class="uim-tertiary" rx="1"/><path class="uim-quaternary" d="M18.27832 5a1.93565 1.93565 0 0 1 0-2H5.72168a1.93565 1.93565 0 0 1 0 2zM20 18a1.97629 1.97629 0 0 1 1 .27832V5.72168a1.93565 1.93565 0 0 1-2 0V18.27832A1.97629 1.97629 0 0 1 20 18zM4 18a1.97629 1.97629 0 0 1 1 .27832V5.72168a1.93565 1.93565 0 0 1-2 0V18.27832A1.97629 1.97629 0 0 1 4 18zM18.27832 19H5.72168a1.93565 1.93565 0 0 1 0 2H18.27832a1.93565 1.93565 0 0 1 0-2z"/></svg>

<svg xmlns="http://www.w3.org/2000/svg" viewBox="0 0 24 24"><path class="uim-primary" d="M4 22a2 2 0 1 1 2-2 2.003 2.003 0 0 1-2 2zm0-2.002zM4 6a2 2 0 1 1 2-2 2.003 2.003 0 0 1-2 2zm0-2.002zM20 6a2 2 0 1 1 2-2 2.003 2.003 0 0 1-2 2zm0-2.002zM20 22a2 2 0 1 1 2-2 2.003 2.003 0 0 1-2 2zm0-2.002z"/><rect width="10" height="10" x="7" y="7" class="uim-tertiary" rx="1"/><path class="uim-quaternary" d="M18.278 5a1.936 1.936 0 0 1 0-2H5.722a1.936 1.936 0 0 1 0 2zM20 18a1.976 1.976 0 0 1 1 .278V5.722a1.936 1.936 0 0 1-2 0v12.556A1.976 1.976 0 0 1 20 18zM4 18a1.976 1.976 0 0 1 1 .278V5.722a1.936 1.936 0 0 1-2 0v12.556A1.976 1.976 0 0 1 4 18zm14.278 1H5.722a1.936 1.936 0 0 1 0 2h12.556a1.936 1.936 0 0 1 0-2z"/></svg>
